X: 38363
T: Stananivy
R: waltz
M: 3/4
K: Dmajor
FAAB A2|FAAA B/c/d|FAAB A2|efed BA:|
faaf d2|efed c/B/A|fdecdA|B=cBG F/E/D:|

